X: 11004
T: Drunken Sailor's, The
R: hornpipe
M: 4/4
K: Edorian
|:ED|B,EED EFGA|BAGF EDB,C|D2DC DEED|AFFA BAGF|
EB,G,B, EFGA|BAGF EDB,C|Ddce dBAF|G2E2E2:|
|:zF|G2GF GABc|dAFG AFD2|FDAD BDAG|(3FED DA BDAF|
G2GF GABc|dAFG AFDF|E2 ed BAFA|G2E2E2:|
|:FA|Beed eBde|fedc BBBd|cAeA fAed|cAAe fAeA|
Beed eBde|fedc BGDG|(3Bcd ce dBAF|G2E2E2:|
|:zD|B,EGB B,EGB|B,DFA B,DFA|B,EGB B,EGB|
B2BA FBDF|(3EEE GB B,EGB|AD (3FED ADFA|(3Bcd ce dBAF|G2E2E2:|
|:gf|eB (3efg eBeg|dA (3def dAdf|eBeg eBeg|dBAF BAAF|
GEB,G FEDF|GDGB ADFA|(3Bcd ce dBAF|G2E2E2:|

